X: 637
T: Xiaoguafu shangfen
L: 1/8
M: 2/4
K: D
d3f [I:setbarnb 1]| 
e f B A | 
B A/ B/ A F | 
A4 | 
d3f | 
e f B A | 
d B A F | 
A4 | 
A Bd2 | 
ef2e | 
d3e | 
B D A F | 
E F A B | 
d2F E | 
A F E B, | 
D4 | 
d> B d3/ B/ | 
A B A F | 
E F A B | 
d2F E | 
A F E B, | 
D4 |]

@@@ Tune index: 9511
